X:1
T:Salzburg (Haydn), CM
T:Salzburg (Haydn), CM
T:Arr from Johann Michael Haydn (1737-1806)
T:Public Domain Courtesy of the Cyber Hymnal™
C:Arr from Johann Michael Haydn (1737-1806)
Z:Public Domain
Z:Courtesy of the Cyber Hymnal™
%%score ( 1 2 ) ( 3 4 )
L:1/8
M:3/4
K:F
V:1 treble 
V:2 treble 
V:3 bass 
V:4 bass 
V:1
 [CF]2 | [FA]4 [Fc]2 | (c2 B2) [FA]2 | [^CA]4 [CG]2 | [DF]4 [DF]2 | (F2 E2) [CF]2 | c2 B2 [FA]2 | %7
 ([FA]6 | [EG]2) z2 [CF]2 | [DF]4 [Fd]2 | (c2 A2) [CF]2 | [DF]4 [Fd]2 | [Fc]4 [Ff]2 | f2 d2 [FB]2 | %14
 ([FA]2 [EB]2) [EG]2 | F6 |] %16
V:2
 x2 | x6 | E4 x2 | x6 | x6 | C4 x2 | G4 x2 | x6 | x6 | x6 | F4 x2 | x6 | x6 | F4 x2 | x6 | F6 |] %16
V:3
 [F,A,]2 | [F,C]4 [A,C]2 | [G,C]4 [F,C]2 | [E,A,]4 [E,A,]2 | [D,A,]4 B,2 | %5
 ([A,C]2 [G,B,]2) [F,A,]2 | [E,C]4 [F,C]2 | [C,C]6- | [C,C]2 z2 A,2 | [D,B,]4 [B,,B,]2 | %10
 (A,2 C2) A,2 | [D,B,]4 [B,,B,]2 | [F,A,]4 [A,,C]2 | (D2 B,2) [B,,D]2 | (C2 G,2) [C,B,]2 | %15
 [F,A,]6 |] %16
V:4
 x2 | x6 | x6 | x6 | x4 B,2 | x6 | x6 | x6 | x4 (F,_E,) | x6 | F,4 (F,_E,) | x6 | x6 | B,,4 x2 | %14
 C,4 x2 | x6 |] %16

